X:8
T:Andy Irvings Polka
R:polka
M:4/4
L:1/8
Q:1/4=200
K:G %1sharp
z7E |\
|: D>EDB, DEG>A | Bd AB/A/ GEcE | D>EDB, DEG>A |\
[1 Bd AB/A/ G2 GE :|2 Bd AB/A/ G2 GA |
|: Bdd>B cee>c | Bd AB/A/ GEcE | Bdd>B cee>f |\
[1 gefd e2 eA :|2 gefd e2 ef |
|: gefd edB>A | Bd AB/A/ GEcE | D>EDB, DEG>A |\
[1 Bd AB/A/ G2 Gf :|2 Bd AB/A/ G2 GE |
|: D>EDB, DEG>A | Bd AB/A/ GEcE | D>EDB, DEG>A |\
[1 Bd AB/A/ G2 GE :|2 Bd AB/A/ G2 GA |
|: Bdd>B cee>c | Bd AB/A/ GEcE | Bdd>B cee>f |\
[1 gefd e2 eA :|2 gefd e2 ef |]
